www/src/assets/webpack.svg

<svg enable-background="new 0 0 774 875.7" viewBox="0 0 774 875.7" xmlns="http://www.w3.org/2000/svg"><path d="m387 0 387 218.9v437.9l-387 218.9-387-218.9v-437.9z" fill="#639"/><path d="m704.9 641.7-305.1 172.6v-134.4l190.1-104.6zm20.9-18.9v-360.9l-111.6 64.5v232zm-657.9 18.9 305.1 172.6v-134.4l-190.2-104.6zm-20.9-18.9v-360.9l111.6 64.5v232zm13.1-384.3 312.9-177v129.9l-200.5 110.3-1.6.9s-110.8-64.1-110.8-64.1zm652.6 0-312.9-177v129.9l200.5 110.2 1.6.9z" fill="#fff"/><path d="m373 649.3-187.6-103.2v-204.3l187.6 108.3zm26.8 0 187.6-103.1v-204.4l-187.6 108.3zm-201.7-331.1 188.3-103.5 188.3 103.5-188.3 108.7z" fill="#ffb238"/></svg>

<svg xmlns="http://www.w3.org/2000/svg" xmlns:xlink="http://www.w3.org/1999/xlink" x="0px" y="0px"
	 viewBox="0 0 774 875.7" style="enable-background:new 0 0 774 875.7;" xml:space="preserve">
<path fill="#663399" d="M387,0l387,218.9v437.9L387,875.7L0,656.8V218.9L387,0z"/>
<path fill="#fff" d="M704.9,641.7L399.8,814.3V679.9l190.1-104.6L704.9,641.7L704.9,641.7z M725.8,622.8V261.9l-111.6,64.5v232
	L725.8,622.8L725.8,622.8z M67.9,641.7L373,814.3V679.9L182.8,575.3L67.9,641.7z M47,622.8V261.9l111.6,64.5v232L47,622.8z
	 M60.1,238.5L373,61.5v129.9L172.5,301.7l-1.6,0.9C170.9,302.6,60.1,238.5,60.1,238.5z M712.7,238.5l-312.9-177v129.9l200.5,110.2
	l1.6,0.9L712.7,238.5L712.7,238.5z"/>
<path fill="#ffb238" d="M373,649.3L185.4,546.1V341.8L373,450.1V649.3z M399.8,649.3l187.6-103.1V341.8L399.8,450.1V649.3z
	 M198.1,318.2l188.3-103.5l188.3,103.5L386.4,426.9L198.1,318.2L198.1,318.2z"/>
</svg>
